file-table-box-multiple-outline.svg

<svg fill="currentColor" viewBox="0 0 24 24"><path d="M3 5v16h16v2H3c-1.1 0-2-.9-2-2V5zm18-4H7c-1.11 0-2 .89-2 2v14c0 1.1.9 2 2 2h14c1.11 0 2-.89 2-2V3c0-1.1-.9-2-2-2m0 16H7V3h14zm-10-3H8v2h3zm4 0h-3v2h3zm-4-3H8v2h3zm4 0h-3v2h3zm-4-3H8v2h3zm4 0h-3v2h3z"/></svg>

<svg  viewBox="0 0 24 24" fill="currentColor"><path  d="M3 5V21H19V23H3C1.9 23 1 22.1 1 21V5H3M21 1H7C5.89 1 5 1.89 5 3V17C5 18.1 5.9 19 7 19H21C22.11 19 23 18.11 23 17V3C23 1.9 22.1 1 21 1M21 17H7V3H21V17M11 14H8V16H11V14M15 14H12V16H15V14M11 11H8V13H11V11M15 11H12V13H15V11M11 8H8V10H11V8M15 8H12V10H15V8Z"/></svg>
